src/svg/ue938-th2.svg

<!-- Generated by IcoMoon.io -->
<svg version="1.1" xmlns="http://www.w3.org/2000/svg" width="32" height="32" viewBox="0 0 32 32">
<path d="M0 0h8v8.005h-8v-8.005z"></path>
<path d="M12 0h8v8.005h-8v-8.005z"></path>
<path d="M24 0h8v8.005h-8v-8.005z"></path>
<path d="M0 11.998h8v8.005h-8v-8.005z"></path>
<path d="M12 11.998h8v8.005h-8v-8.005z"></path>
<path d="M24 11.998h8v8.005h-8v-8.005z"></path>
<path d="M0 23.995h8v8.005h-8v-8.005z"></path>
<path d="M12 23.995h8v8.005h-8v-8.005z"></path>
<path d="M24 23.995h8v8.005h-8v-8.005z"></path>
</svg>

<svg xmlns="http://www.w3.org/2000/svg" width="32" height="32"><path d="M0 0h8v8.005H0V0zm12 0h8v8.005h-8V0zm12 0h8v8.005h-8V0zM0 11.998h8v8.005H0v-8.005zm12 0h8v8.005h-8v-8.005zm12 0h8v8.005h-8v-8.005zM0 23.995h8V32H0v-8.005zm12 0h8V32h-8v-8.005zm12 0h8V32h-8v-8.005z"/></svg>
